src/apps/digikala.svg

<?xml version="1.0" encoding="UTF-8" standalone="no"?>
<svg viewBox="0 0 104 28" version="1.1" xmlns="http://www.w3.org/2000/svg" xmlns:xlink="http://www.w3.org/1999/xlink" xmlns:sketch="http://www.bohemiancoding.com/sketch/ns">
    <title>Page 1</title>
    <desc>Created with Sketch.</desc>
    <defs>
        <path id="path-1" d="M0,0 L104,0 L104,28 L0,28 L0,0 Z"></path>
    </defs>
    <g id="Page-1" stroke="none" stroke-width="1" fill="none" fill-rule="evenodd" sketch:type="MSPage">
        <g sketch:type="MSLayerGroup">
            <path d="M100,18 L96,18 L93,18 C92.448,18 92,17.552 92,17 L92,11 C92,10.448 92.448,10 93,10 L96,10 L100,10 L100,18 Z M96,6 L92,6 C89.791,6 88,7.791 88,10 L88,18 C88,20.209 89.791,22 92,22 L96,22 L104,22 L104,6 L96,6 Z" id="Fill-1" fill="#EE403D" sketch:type="MSShapeGroup"></path>
            <mask id="mask-2" sketch:name="Clip 4" fill="white">
                <use xlink:href="#path-1"></use>
            </mask>
            <g id="Clip-4"></g>
            <path d="M82,22 L86,22 L86,0 L82,0 L82,22 Z" id="Fill-3" fill="#EE403D" sketch:type="MSShapeGroup" mask="url(#mask-2)"></path>
            <path d="M76,18 L72,18 L69,18 C68.448,18 68,17.552 68,17 L68,11 C68,10.448 68.448,10 69,10 L72,10 L76,10 L76,18 Z M68,6 C65.791,6 64,7.791 64,10 L64,18 C64,20.209 65.791,22 68,22 L72,22 L80,22 L80,6 L72,6 L68,6 Z" id="Fill-5" fill="#EE403D" sketch:type="MSShapeGroup" mask="url(#mask-2)"></path>
            <path d="M48,0 L48,22 L52,22 L52,14 L52,0 L48,0 Z" id="Fill-6" fill="#EE403D" sketch:type="MSShapeGroup" mask="url(#mask-2)"></path>
            <path d="M57.2502,14 L64.0002,6 L58.7492,6 L52.0002,14 L58.7502,22 L64.0002,22 L57.2502,14 L57.2502,14 Z" id="Fill-7" fill="#EE403D" sketch:type="MSShapeGroup" mask="url(#mask-2)"></path>
            <path d="M42,4 L46,4 L46,0 L42,0 L42,4 Z" id="Fill-8" fill="#808283" sketch:type="MSShapeGroup" mask="url(#mask-2)"></path>
            <path d="M42,22 L46,22 L46,6 L42,6 L42,22 Z" id="Fill-9" fill="#808283" sketch:type="MSShapeGroup" mask="url(#mask-2)"></path>
            <path d="M36,18 L32,18 L29,18 C28.448,18 28,17.552 28,17 L28,11 C28,10.448 28.448,10 29,10 L32,10 L36,10 L36,18 Z M28,6 C25.791,6 24,7.791 24,10 L24,18 C24,20.209 25.791,22 28,22 L32,22 L36,22 L36,23 C36,23.552 35.552,24 35,24 L31,24 L27.566,24 L30.923,28 L31,28 L36,28 C38.209,28 40,26.209 40,24 L40,22 L40,6 L32,6 L28,6 Z" id="Fill-10" fill="#808283" sketch:type="MSShapeGroup" mask="url(#mask-2)"></path>
            <path d="M18,4 L22,4 L22,0 L18,0 L18,4 Z" id="Fill-11" fill="#808283" sketch:type="MSShapeGroup" mask="url(#mask-2)"></path>
            <path d="M18,22 L22,22 L22,6 L18,6 L18,22 Z" id="Fill-12" fill="#808283" sketch:type="MSShapeGroup" mask="url(#mask-2)"></path>
            <path d="M12,18 L8,18 L5,18 C4.448,18 4,17.552 4,17 L4,11 C4,10.448 4.448,10 5,10 L8,10 L12,10 L12,18 Z M12,6 L8,6 L4,6 C1.791,6 0,7.791 0,10 L0,18 C0,20.209 1.791,22 4,22 L8,22 L16,22 L16,6 L16,0 L12,0 L12,6 Z" id="Fill-13" fill="#808283" sketch:type="MSShapeGroup" mask="url(#mask-2)"></path>
        </g>
    </g>
</svg>

<svg viewBox="0 0 104 28" xmlns="http://www.w3.org/2000/svg" xmlns:xlink="http://www.w3.org/1999/xlink"><title>Digikala</title><defs><path id="a" d="M0 0h104v28H0V0z"/></defs><g fill="none" fill-rule="evenodd"><path d="M100 18h-7c-.6 0-1-.4-1-1v-6c0-.6.4-1 1-1h7v8zM96 6h-4c-2.2 0-4 1.8-4 4v8c0 2.2 1.8 4 4 4h12V6h-8z" fill="#EE403D"/><mask id="b" fill="#fff"><use xlink:href="#a"/></mask><path d="M82 22h4V0h-4v22zM76 18h-7c-.6 0-1-.4-1-1v-6c0-.6.4-1 1-1h7v8zM68 6c-2.2 0-4 1.8-4 4v8c0 2.2 1.8 4 4 4h12V6H68zM48 0v22h4V0h-4zM57.3 14L64 6h-5.3L52 14l6.8 8H64l-6.7-8z" fill="#EE403D" mask="url(#b)"/><path d="M42 4h4V0h-4v4zM42 22h4V6h-4v16zM36 18h-7c-.6 0-1-.4-1-1v-6c0-.6.4-1 1-1h7v8zM28 6c-2.2 0-4 1.8-4 4v8c0 2.2 1.8 4 4 4h8v1c0 .6-.4 1-1 1h-7.4l3.3 4h5c2.2 0 4-1.8 4-4V6H28zM18 4h4V0h-4v4zM18 22h4V6h-4v16zM12 18H5c-.6 0-1-.4-1-1v-6c0-.6.4-1 1-1h7v8zm0-12H4c-2.2 0-4 1.8-4 4v8c0 2.2 1.8 4 4 4h12V0h-4v6z" fill="#808283" mask="url(#b)"/></g></svg>
